exports/military-expenditure-as-a-share-of-gdp_v10_850x600.svg

<svg xmlns="http://www.w3.org/2000/svg" version="1.1" style="background-color:#fff;-webkit-font-smoothing:antialiased" width="850" height="600" font-family="'Helvetica Neue',Helvetica,Arial,sans-serif" font-size="18" text-rendering="optimizeLegibility"><g class="ChartTab"><g class="HeaderView"><g opacity=".8" transform="matrix(.27 0 0 .27 778 15)"><a xmlns:xlink="http://www.w3.org/1999/xlink" xlink:href="https://ourworldindata.org" target="_blank"><g><path fill="#1B2543" d="M0 0h211.2v130.1H0z"/><path fill="#E63912" d="M0 112.2h211.2v17.9H0z"/><g><path fill="none" d="M1.2 12.3h210.2v99.2H1.2z"/><path fill="#FFF" d="M37.8 32.2c0 12.7-7.7 19.4-17.1 19.4-9.7 0-16.6-7.5-16.6-18.7 0-11.7 7.3-19.3 17.1-19.3 10.1.1 16.6 7.7 16.6 18.6zm-28.6.6c0 7.9 4.3 14.9 11.8 14.9 7.5 0 11.8-6.9 11.8-15.3 0-7.3-3.8-14.9-11.8-14.9-7.9 0-11.8 7.3-11.8 15.3zM62.7 43.8c0 2.7.1 5.1.2 7.2h-4.3l-.3-4.3h-.1c-1.3 2.1-4 4.9-8.8 4.9-4.2 0-9.1-2.3-9.1-11.6V24.6h4.8v14.6c0 5 1.5 8.4 5.9 8.4 3.2 0 5.5-2.2 6.3-4.4.3-.7.4-1.6.4-2.5V24.6h4.8v19.2zM67.3 32.8c0-3.1-.1-5.8-.2-8.2h4.2l.2 5.2h.2c1.2-3.5 4.1-5.8 7.3-5.8.5 0 .9.1 1.4.2v4.5c-.5-.1-1-.2-1.6-.2-3.4 0-5.8 2.6-6.5 6.2-.1.7-.2 1.4-.2 2.2V51h-4.8V32.8zM95.4 51L86 14.2h5l4.4 18.6c1.1 4.6 2.1 9.2 2.7 12.7h.1c.6-3.7 1.8-8 3-12.8l4.9-18.5h5l4.5 18.7c1 4.4 2 8.7 2.6 12.6h.1c.8-4 1.8-8.1 3-12.7l4.9-18.5h4.9L120.6 51h-5L111 31.9c-1.1-4.7-1.9-8.3-2.4-12h-.1c-.7 3.7-1.5 7.3-2.8 12L100.4 51h-5zM154.9 37.6c0 9.8-6.8 14-13.2 14-7.2 0-12.7-5.2-12.7-13.6 0-8.8 5.8-14 13.1-14 7.7 0 12.8 5.5 12.8 13.6zm-21 .3c0 5.8 3.3 10.1 8 10.1 4.6 0 8-4.3 8-10.3 0-4.5-2.2-10.1-7.9-10.1s-8.1 5.2-8.1 10.3zM158.2 32.8c0-3.1-.1-5.8-.2-8.2h4.2l.2 5.2h.2c1.2-3.5 4.1-5.8 7.3-5.8.5 0 .9.1 1.4.2v4.5c-.5-.1-1-.2-1.6-.2-3.4 0-5.8 2.6-6.5 6.2-.1.7-.2 1.4-.2 2.2V51h-4.8V32.8zM173.5 12.3h4.8V51h-4.8V12.3zM206.5 12.3v31.9c0 2.3.1 5 .2 6.8h-4.3l-.2-4.6h-.2c-1.5 2.9-4.7 5.2-9 5.2-6.4 0-11.3-5.4-11.3-13.4-.1-8.8 5.4-14.2 11.9-14.2 4 0 6.8 1.9 8 4h.1V12.3h4.8zm-4.8 23.1c0-.6-.1-1.4-.2-2a7 7 0 00-6.9-5.6c-5 0-7.9 4.4-7.9 10.2 0 5.3 2.6 9.8 7.8 9.8 3.2 0 6.2-2.1 7.1-5.7.2-.7.2-1.3.2-2.1v-4.6zM42.8 64c.1 1.6-1.1 2.9-3.1 2.9-1.7 0-2.9-1.3-2.9-2.9 0-1.7 1.3-3 3-3 1.9 0 3 1.3 3 3zm-5.4 33.8V71.4h4.8v26.4h-4.8zM47.5 78.6c0-2.7-.1-5-.2-7.1h4.3l.3 4.4h.1c1.3-2.5 4.4-5 8.8-5 3.7 0 9.4 2.2 9.4 11.2v15.8h-4.8V82.6c0-4.3-1.6-7.8-6.1-7.8-3.2 0-5.6 2.2-6.5 4.9-.2.6-.3 1.4-.3 2.2v15.9h-4.8V78.6zM84 61.6c2.9-.4 6.3-.8 10.1-.8 6.8 0 11.7 1.6 14.9 4.6 3.3 3 5.2 7.3 5.2 13.2 0 6-1.9 10.9-5.3 14.3-3.4 3.4-9.1 5.3-16.3 5.3-3.4 0-6.2-.2-8.6-.4V61.6zm4.8 32.5c1.2.2 3 .3 4.8.3 10.2 0 15.7-5.7 15.7-15.6.1-8.7-4.9-14.2-14.9-14.2-2.5 0-4.3.2-5.6.5v29zM132.1 97.8l-.4-3.3h-.2a9.79 9.79 0 01-8.1 3.9c-5.4 0-8.1-3.8-8.1-7.6 0-6.4 5.7-9.9 15.9-9.8v-.5c0-2.2-.6-6.1-6-6.1-2.5 0-5 .8-6.9 2l-1.1-3.2c2.2-1.4 5.4-2.3 8.7-2.3 8.1 0 10.1 5.5 10.1 10.8v9.9c0 2.3.1 4.5.4 6.3h-4.3zm-.7-13.4c-5.3-.1-11.2.8-11.2 5.9 0 3.1 2.1 4.6 4.5 4.6 3.4 0 5.6-2.2 6.4-4.4.2-.5.3-1 .3-1.5v-4.6zM146.6 63.9v7.6h6.9v3.7h-6.9v14.2c0 3.3.9 5.1 3.6 5.1 1.3 0 2.2-.2 2.8-.3l.2 3.6c-.9.4-2.4.7-4.3.7-2.2 0-4-.7-5.2-2-1.4-1.4-1.9-3.8-1.9-6.9V75.1h-4.1v-3.7h4.1v-6.3l4.8-1.2zM171.4 97.8l-.4-3.3h-.2a9.79 9.79 0 01-8.1 3.9c-5.4 0-8.1-3.8-8.1-7.6 0-6.4 5.7-9.9 15.9-9.8v-.5c0-2.2-.6-6.1-6-6.1-2.5 0-5 .8-6.9 2l-1.1-3.2c2.2-1.4 5.4-2.3 8.7-2.3 8.1 0 10.1 5.5 10.1 10.8v9.9c0 2.3.1 4.5.4 6.3h-4.3zm-.7-13.4c-5.3-.1-11.2.8-11.2 5.9 0 3.1 2.1 4.6 4.5 4.6 3.4 0 5.6-2.2 6.4-4.4.2-.5.3-1 .3-1.5v-4.6z"/></g></g></a></g><a href="https://ourworldindata.org/grapher/military-expenditure-as-a-share-of-gdp" target="_blank"><text font-size="25.2" x="15" y="35.2" fill="#555"><tspan x="15" y="35.16">Military expenditure as a share of GDP</tspan></text></a><text font-size="14.4" x="15" y="53.7" fill="#666"><tspan x="15" y="53.72">Total military expenditure divided by GDP. Figures correspond to current-prices estimates combining data from</tspan><tspan x="15" y="69.56">several sources.</tspan></text></g><g class="LineChart"><defs><clipPath id="a"><path d="M42.56 0h830v928.8h-830z"/></clipPath></defs><g class="AxisBoxView"><g class="HorizontalAxis" fill="#666" text-anchor="middle" font-size="16.2"><text x="52.6" y="556.5">1827</text><text x="97.3" y="556.5">1840</text><text x="166.2" y="556.5">1860</text><text x="235.1" y="556.5">1880</text><text x="304" y="556.5">1900</text><text x="372.9" y="556.5">1920</text><text x="441.8" y="556.5">1940</text><text x="510.7" y="556.5">1960</text><text x="579.6" y="556.5">1980</text><text x="648.5" y="556.5">2000</text><text x="703.6" y="556.5">2016</text></g><g class="VerticalAxis" fill="#666" dominant-baseline="middle" text-anchor="end" font-size="16.2"><text x="47.56" y="535.3">0%</text><text x="47.56" y="445.7">20%</text><text x="47.56" y="356.1">40%</text><text x="47.56" y="266.5">60%</text><text x="47.56" y="176.9">80%</text></g><g class="AxisGridLines"><path stroke="#ccc" d="M52.56 535.3h651.05"/><path stroke="#ddd" stroke-dasharray="3,2" d="M52.56 445.7h651.05M52.56 356.1h651.05M52.56 266.5h651.05M52.56 176.9h651.05"/></g></g><g clip-path="url(#a)"><g class="HeightedLegend clickable"><g class="legendMark"><g class="indicator" stroke="#666" stroke-width=".5"><path d="M708.61 531.1h19.17M727.78 531.1v-2.55M727.78 528.55h5.83"/></g><text font-size="13.5" x="738.6" y="532.6" fill="#34983f"><tspan x="738.61" y="532.6">Japan</tspan></text></g><g class="legendMark"><g class="indicator" stroke="#666" stroke-width=".5"><path d="M708.61 527h12.5M721.11 527v-13.95M721.11 513.05h12.5"/></g><text font-size="13.5" x="738.6" y="517.1" fill="#ca2628"><tspan x="738.61" y="517.1">United Kingdom</tspan></text></g><g class="legendMark"><g class="indicator" stroke="#666" stroke-width=".5"><path d="M708.61 520.6h5.83M714.44 520.6v-23.05M714.44 497.55h19.17"/></g><text font-size="13.5" x="738.6" y="501.6" fill="#3360a9"><tspan x="738.61" y="501.6">United States</tspan></text></g></g><g class="Lines"><g class="key-United-States_0"><path stroke="#3360a9" stroke-linecap="round" d="M53 531h7l3 1h7l3-1 4 1h7l3-1h4l3 2 3-2h7l4 2 3-1 4-1 3-6 4 4 3-1 3 4h4l3 1 4-1h14l3-1h3l4 2 3-1 4-41 3-14 4 9 3-24 4 63 3 4 3-5 4 4 3 1 4 2 3 1 4-1h3l4 1h6l4 1 3-1 4 1h17l3 1h7l4-1h27l4-2 3-3 4 3h3l4 1h6l4-1 3 1h7l4-1 3 1h21l3 1 4-3 3-36 4-22 3 55 3 2 4 1 3 2h7l4 1h3l4-1h6l4-1h7l3-1h14l3 1 4-3 3-14 4-49 3-89 4-14 3-3 4 88 3 63 3 7 4-4 3 1 4-22 3-15 4 2 3 8 4 6 3 1 3-1h4l3 2 4 3 3-1h4l3 2 4 3 3 2 3-6 4-2 3 1 4 2 3 4 4 4 3 1 4 3h6l4 3h3l4 1h3l4-2 3-1 4-3h6l4 1h7l3 1 4 1 3 2 4 2h6l4 1 3 2 4 1 3 1 4 1h10l3-1 4-1 3-1 4-1 3 1 4-1 3-1 4-2h3l3 1 4 1 3 1 4 2 3 1h4" fill="none" stroke-width="1.5"/></g><g class="key-United-Kingdom_0"><path stroke="#ca2628" stroke-linecap="round" d="M53 523l3 1h4l3 2 3-1h4l3 1 4 1 3 1h4l3-1 4 1 3-1 3-1 4-1 3-1 4 1 3 1 4-1 3-1 4-1 3-1 3 3 4-1 3 1 4 1 3 2 4-45 3 27 4 4 3 9 3-2 4-2h7l3 1 4 3 3 1 4 1h3l3-3h4l3 3 4 2 3 2 4-1h10l3-1 4-1h3l4-1 3 2h11l3-1 3-5 4 4 3 1h14l4-1 3 1 3-1h7l4 1 3-1 4-5 3-13 4 1 3 5 3 7 4 1 3 2h4l3 1h4l3-1 4-1h6l4 1 3-50 4-86 3-22 4 3 3 18 4 136 3-17 3 11 4 7 3-1h4l3 1h4l3 1h4l3 1h3l4-1 3 1 4 2 3-2 4-2 3-4 4-5 3-10 3-103 4-27 3 17 4-13 3-12 4-8 3-13 4-7 3 129 3 36 4 2 3 1 4-6 3-8h4l3 4 4 3 3 2 3 3h4l3 2 4 1h7l3 1h4l3 1 3 1h4l3 1 4 2 3 2h4l3-1 4 1 3-1h7l3 1 4 1h3l4-2h7l3-1h7l3 2 4 1 3 4h11l3-1 3 2h4l3 2h4l3 1h4l3 1h14l3 1 4-1h3l4 1h3l4-2 3 1h7l3 1 4 1h7" fill="none" stroke-width="1.5"/></g><g class="key-Japan_0"><path stroke="#34983f" stroke-linecap="round" d="M194 532l3 1 4 1 3-1 4-5 3 1 4-2 3 2 3 1 4 1 3-1h7l4-1h3l4-1h3l3 1 4-5 3-1 4 1h3l4 1 3 1 4 2h3l3-38 4 11 3 15 4-7 3 2 4 1 3-3 4 7 3 4 3-11 4-78 3-6 4 57 3 27h4l3 5 4-1 3 1 3 2 4 1 3-3 4 1 3 2 4-1 3-3 4-4h6l4 5 3 4 4 2 3 2 4 1 3-2 4-1 3 1h3l4-2 3-8 4-3 3 1 4-1 3 3 4-38 3-38 3 12 4-2 3-34 4-31 3-55 4-233 3 188 24 248 4-2 3 1 4 2h10l3 1 4 1h24l3 1h7l4-1 3 1h7l3-1 4 1h7l3-1 4 1 3-1h121" fill="none" stroke-width="1.5"/></g></g></g></g><g class="SourcesFooter" fill="#777"><g class="clickable" fill="#777"><text font-size="12.6" x="15" y="581.6"><tspan x="15" y="581.58">Source: Our World in Data (based on COW &amp; SIPRI 2018)</tspan></text></g><text font-size="12.6" x="775.4" y="581.6"><tspan x="775.4" y="581.58"><a class="cclogo" href="http://creativecommons.org/licenses/by-sa/4.0/deed.en_US" target="_blank" fill="#777">CC BY-SA</a></tspan></text></g></g></svg>

<svg xmlns="http://www.w3.org/2000/svg" version="1.1" style="font-family: 'Helvetica Neue', Helvetica, Arial, sans-serif; font-size: 18px; background-color: white; text-rendering: optimizeLegibility; -webkit-font-smoothing: antialiased;" width="850" height="600"><g class="ChartTab"><g class="HeaderView"><g opacity="0.8" transform="translate(778, 15) scale(0.27)"><a xmlns:xlink="http://www.w3.org/1999/xlink" xlink:href="https://ourworldindata.org" target="_blank"><g><rect x="0" y="0" fill="#1B2543" width="211.2" height="130.1"/><rect x="0" y="112.2" fill="#E63912" width="211.2" height="17.9"/><g><rect x="1.2" y="12.3" fill="none" width="210.2" height="99.2"/><path fill="#FFFFFF" d="M37.8,32.2c0,12.7-7.7,19.4-17.1,19.4c-9.7,0-16.6-7.5-16.6-18.7c0-11.7,7.3-19.3,17.1-19.3 C31.3,13.7,37.8,21.3,37.8,32.2z M9.2,32.8c0,7.9,4.3,14.9,11.8,14.9c7.5,0,11.8-6.9,11.8-15.3c0-7.3-3.8-14.9-11.8-14.9 C13.1,17.5,9.2,24.8,9.2,32.8z"/><path fill="#FFFFFF" d="M62.7,43.8c0,2.7,0.1,5.1,0.2,7.2h-4.3l-0.3-4.3h-0.1c-1.3,2.1-4,4.9-8.8,4.9c-4.2,0-9.1-2.3-9.1-11.6 V24.6h4.8v14.6c0,5,1.5,8.4,5.9,8.4c3.2,0,5.5-2.2,6.3-4.4c0.3-0.7,0.4-1.6,0.4-2.5V24.6h4.8V43.8z"/><path fill="#FFFFFF" d="M67.3,32.8c0-3.1-0.1-5.8-0.2-8.2h4.2l0.2,5.2h0.2c1.2-3.5,4.1-5.8,7.3-5.8c0.5,0,0.9,0.1,1.4,0.2v4.5 c-0.5-0.1-1-0.2-1.6-0.2c-3.4,0-5.8,2.6-6.5,6.2c-0.1,0.7-0.2,1.4-0.2,2.2V51h-4.8V32.8z"/><path fill="#FFFFFF" d="M95.4,51l-9.4-36.8h5l4.4,18.6c1.1,4.6,2.1,9.2,2.7,12.7h0.1c0.6-3.7,1.8-8,3-12.8l4.9-18.5h5l4.5,18.7 c1,4.4,2,8.7,2.6,12.6h0.1c0.8-4,1.8-8.1,3-12.7l4.9-18.5h4.9L120.6,51h-5L111,31.9c-1.1-4.7-1.9-8.3-2.4-12h-0.1 c-0.7,3.7-1.5,7.3-2.8,12L100.4,51H95.4z"/><path fill="#FFFFFF" d="M154.9,37.6c0,9.8-6.8,14-13.2,14c-7.2,0-12.7-5.2-12.7-13.6c0-8.8,5.8-14,13.1-14 C149.8,24,154.9,29.5,154.9,37.6z M133.9,37.9c0,5.8,3.3,10.1,8,10.1c4.6,0,8-4.3,8-10.3c0-4.5-2.2-10.1-7.9-10.1 C136.3,27.6,133.9,32.8,133.9,37.9z"/><path fill="#FFFFFF" d="M158.2,32.8c0-3.1-0.1-5.8-0.2-8.2h4.2l0.2,5.2h0.2c1.2-3.5,4.1-5.8,7.3-5.8c0.5,0,0.9,0.1,1.4,0.2v4.5 c-0.5-0.1-1-0.2-1.6-0.2c-3.4,0-5.8,2.6-6.5,6.2c-0.1,0.7-0.2,1.4-0.2,2.2V51h-4.8V32.8z"/><path fill="#FFFFFF" d="M173.5,12.3h4.8V51h-4.8V12.3z"/><path fill="#FFFFFF" d="M206.5,12.3v31.9c0,2.3,0.1,5,0.2,6.8h-4.3l-0.2-4.6H202c-1.5,2.9-4.7,5.2-9,5.2 c-6.4,0-11.3-5.4-11.3-13.4c-0.1-8.8,5.4-14.2,11.9-14.2c4,0,6.8,1.9,8,4h0.1V12.3H206.5z M201.7,35.4c0-0.6-0.1-1.4-0.2-2 c-0.7-3.1-3.3-5.6-6.9-5.6c-5,0-7.9,4.4-7.9,10.2c0,5.3,2.6,9.8,7.8,9.8c3.2,0,6.2-2.1,7.1-5.7c0.2-0.7,0.2-1.3,0.2-2.1V35.4z"/><path fill="#FFFFFF" d="M42.8,64c0.1,1.6-1.1,2.9-3.1,2.9c-1.7,0-2.9-1.3-2.9-2.9c0-1.7,1.3-3,3-3C41.7,61,42.8,62.3,42.8,64z M37.4,97.8V71.4h4.8v26.4H37.4z"/><path fill="#FFFFFF" d="M47.5,78.6c0-2.7-0.1-5-0.2-7.1h4.3l0.3,4.4h0.1c1.3-2.5,4.4-5,8.8-5c3.7,0,9.4,2.2,9.4,11.2v15.8h-4.8 V82.6c0-4.3-1.6-7.8-6.1-7.8c-3.2,0-5.6,2.2-6.5,4.9c-0.2,0.6-0.3,1.4-0.3,2.2v15.9h-4.8V78.6z"/><path fill="#FFFFFF" d="M84,61.6c2.9-0.4,6.3-0.8,10.1-0.8c6.8,0,11.7,1.6,14.9,4.6c3.3,3,5.2,7.3,5.2,13.2c0,6-1.9,10.9-5.3,14.3 c-3.4,3.4-9.1,5.3-16.3,5.3c-3.4,0-6.2-0.2-8.6-0.4V61.6z M88.8,94.1c1.2,0.2,3,0.3,4.8,0.3c10.2,0,15.7-5.7,15.7-15.6 c0.1-8.7-4.9-14.2-14.9-14.2c-2.5,0-4.3,0.2-5.6,0.5V94.1z"/><path fill="#FFFFFF" d="M132.1,97.8l-0.4-3.3h-0.2c-1.5,2.1-4.3,3.9-8.1,3.9c-5.4,0-8.1-3.8-8.1-7.6c0-6.4,5.7-9.9,15.9-9.8v-0.5 c0-2.2-0.6-6.1-6-6.1c-2.5,0-5,0.8-6.9,2l-1.1-3.2c2.2-1.4,5.4-2.3,8.7-2.3c8.1,0,10.1,5.5,10.1,10.8v9.9c0,2.3,0.1,4.5,0.4,6.3 H132.1z M131.4,84.4c-5.3-0.1-11.2,0.8-11.2,5.9c0,3.1,2.1,4.6,4.5,4.6c3.4,0,5.6-2.2,6.4-4.4c0.2-0.5,0.3-1,0.3-1.5V84.4z"/><path fill="#FFFFFF" d="M146.6,63.9v7.6h6.9v3.7h-6.9v14.2c0,3.3,0.9,5.1,3.6,5.1c1.3,0,2.2-0.2,2.8-0.3l0.2,3.6 c-0.9,0.4-2.4,0.7-4.3,0.7c-2.2,0-4-0.7-5.2-2c-1.4-1.4-1.9-3.8-1.9-6.9V75.1h-4.1v-3.7h4.1v-6.3L146.6,63.9z"/><path fill="#FFFFFF" d="M171.4,97.8l-0.4-3.3h-0.2c-1.5,2.1-4.3,3.9-8.1,3.9c-5.4,0-8.1-3.8-8.1-7.6c0-6.4,5.7-9.9,15.9-9.8v-0.5 c0-2.2-0.6-6.1-6-6.1c-2.5,0-5,0.8-6.9,2l-1.1-3.2c2.2-1.4,5.4-2.3,8.7-2.3c8.1,0,10.1,5.5,10.1,10.8v9.9c0,2.3,0.1,4.5,0.4,6.3 H171.4z M170.7,84.4c-5.3-0.1-11.2,0.8-11.2,5.9c0,3.1,2.1,4.6,4.5,4.6c3.4,0,5.6-2.2,6.4-4.4c0.2-0.5,0.3-1,0.3-1.5V84.4z"/></g></g></a></g><a href="https://ourworldindata.org/grapher/military-expenditure-as-a-share-of-gdp" target="_blank"><text font-size="25.20" x="15.0" y="35.2" fill="#555"><tspan x="15" y="35.160000000000004">Military expenditure as a share of GDP</tspan></text></a><text font-size="14.40" x="15.0" y="53.7" fill="#666"><tspan x="15" y="53.72">Total military expenditure divided by GDP. Figures correspond to current-prices estimates combining data from</tspan><tspan x="15" y="69.56">several sources.</tspan></text></g><g class="LineChart"><defs><clipPath id="boundsClip-124"><rect x="42.562" y="0" width="830" height="928.8"></rect></clipPath></defs><g class="AxisBoxView"><g class="HorizontalAxis"><text x="52.6" y="556.5" fill="#666" text-anchor="middle" font-size="16.2">1827</text><text x="97.3" y="556.5" fill="#666" text-anchor="middle" font-size="16.2">1840</text><text x="166.2" y="556.5" fill="#666" text-anchor="middle" font-size="16.2">1860</text><text x="235.1" y="556.5" fill="#666" text-anchor="middle" font-size="16.2">1880</text><text x="304" y="556.5" fill="#666" text-anchor="middle" font-size="16.2">1900</text><text x="372.9" y="556.5" fill="#666" text-anchor="middle" font-size="16.2">1920</text><text x="441.8" y="556.5" fill="#666" text-anchor="middle" font-size="16.2">1940</text><text x="510.7" y="556.5" fill="#666" text-anchor="middle" font-size="16.2">1960</text><text x="579.6" y="556.5" fill="#666" text-anchor="middle" font-size="16.2">1980</text><text x="648.5" y="556.5" fill="#666" text-anchor="middle" font-size="16.2">2000</text><text x="703.6" y="556.5" fill="#666" text-anchor="middle" font-size="16.2">2016</text></g><g class="VerticalAxis"><text x="47.56" y="535.3" fill="#666" dominant-baseline="middle" text-anchor="end" font-size="16.2">0%</text><text x="47.56" y="445.7" fill="#666" dominant-baseline="middle" text-anchor="end" font-size="16.2">20%</text><text x="47.56" y="356.1" fill="#666" dominant-baseline="middle" text-anchor="end" font-size="16.2">40%</text><text x="47.56" y="266.5" fill="#666" dominant-baseline="middle" text-anchor="end" font-size="16.2">60%</text><text x="47.56" y="176.9" fill="#666" dominant-baseline="middle" text-anchor="end" font-size="16.2">80%</text></g><g class="AxisGridLines"><line x1="52.56" y1="535.3" x2="703.61" y2="535.3" stroke="#ccc"></line><line x1="52.56" y1="445.7" x2="703.61" y2="445.7" stroke="#ddd" stroke-dasharray="3,2"></line><line x1="52.56" y1="356.1" x2="703.61" y2="356.1" stroke="#ddd" stroke-dasharray="3,2"></line><line x1="52.56" y1="266.5" x2="703.61" y2="266.5" stroke="#ddd" stroke-dasharray="3,2"></line><line x1="52.56" y1="176.9" x2="703.61" y2="176.9" stroke="#ddd" stroke-dasharray="3,2"></line></g></g><g clip-path="url(#boundsClip-124)"><g class="HeightedLegend clickable"><g class="legendMark"><g class="indicator"><line x1="708.61" y1="531.1" x2="727.7766666666666" y2="531.1" stroke="#666" stroke-width="0.5"></line><line x1="727.7766666666666" y1="531.1" x2="727.7766666666666" y2="528.55" stroke="#666" stroke-width="0.5"></line><line x1="727.7766666666666" y1="528.55" x2="733.61" y2="528.55" stroke="#666" stroke-width="0.5"></line></g><rect x="703.61" y="521.8" width="71.99000000000001" height="13.5" fill="#fff" opacity="0"></rect><text font-size="13.50" x="738.6" y="532.6" fill="#34983f"><tspan x="738.61" y="532.5999999999999">Japan</tspan></text></g><g class="legendMark"><g class="indicator"><line x1="708.61" y1="527" x2="721.11" y2="527" stroke="#666" stroke-width="0.5"></line><line x1="721.11" y1="527" x2="721.11" y2="513.05" stroke="#666" stroke-width="0.5"></line><line x1="721.11" y1="513.05" x2="733.61" y2="513.05" stroke="#666" stroke-width="0.5"></line></g><rect x="703.61" y="506.29999999999995" width="131.39" height="13.5" fill="#fff" opacity="0"></rect><text font-size="13.50" x="738.6" y="517.1" fill="#ca2628"><tspan x="738.61" y="517.0999999999999">United Kingdom</tspan></text></g><g class="legendMark"><g class="indicator"><line x1="708.61" y1="520.6" x2="714.4433333333334" y2="520.6" stroke="#666" stroke-width="0.5"></line><line x1="714.4433333333334" y1="520.6" x2="714.4433333333334" y2="497.54999999999995" stroke="#666" stroke-width="0.5"></line><line x1="714.4433333333334" y1="497.54999999999995" x2="733.61" y2="497.54999999999995" stroke="#666" stroke-width="0.5"></line></g><rect x="703.61" y="490.79999999999995" width="116.405" height="13.5" fill="#fff" opacity="0"></rect><text font-size="13.50" x="738.6" y="501.6" fill="#3360a9"><tspan x="738.61" y="501.59999999999997">United States</tspan></text></g></g><g class="Lines"><rect x="53" y="92" width="651" height="443" fill="rgba(255,255,255,0)" opacity="0"></rect><g class="key-United-States_0"><path stroke="#3360a9" stroke-linecap="round" d="M53 531L56 531L60 531L63 532L66 532L70 532L73 531L77 532L80 532L84 532L87 531L91 531L94 533L97 531L101 531L104 531L108 533L111 532L115 531L118 525L122 529L125 528L128 532L132 532L135 533L139 532L142 532L146 532L149 532L153 532L156 531L159 531L163 533L166 532L170 491L173 477L177 486L180 462L184 525L187 529L190 524L194 528L197 529L201 531L204 532L208 531L211 531L215 532L218 532L221 532L225 533L228 532L232 533L235 533L239 533L242 533L246 533L249 533L252 534L256 534L259 534L263 533L266 533L270 533L273 533L277 533L280 533L283 533L287 533L290 533L294 531L297 528L301 531L304 531L308 532L311 532L314 532L318 531L321 532L325 532L328 532L332 531L335 532L339 532L342 532L345 532L349 532L352 532L356 532L359 533L363 530L366 494L370 472L373 527L376 529L380 530L383 532L387 532L390 532L394 533L397 533L401 532L404 532L407 532L411 531L414 531L418 531L421 530L425 530L428 530L432 530L435 530L438 531L442 528L445 514L449 465L452 376L456 362L459 359L463 447L466 510L469 517L473 513L476 514L480 492L483 477L487 479L490 487L494 493L497 494L500 493L504 493L507 495L511 498L514 497L518 497L521 499L525 502L528 504L531 498L535 496L538 497L542 499L545 503L549 507L552 508L556 511L559 511L562 511L566 514L569 514L573 515L576 515L580 513L583 512L587 509L590 509L593 509L597 510L600 510L604 510L607 511L611 512L614 514L618 516L621 516L624 516L628 517L631 519L635 520L638 521L642 522L645 522L649 522L652 522L655 521L659 520L662 519L666 518L669 519L673 518L676 517L680 515L683 515L686 516L690 517L693 518L697 520L700 521L704 521" fill="none" stroke-width="1.5"></path></g><g class="key-United-Kingdom_0"><path stroke="#ca2628" stroke-linecap="round" d="M53 523L56 524L60 524L63 526L66 525L70 525L73 526L77 527L80 528L84 528L87 527L91 528L94 527L97 526L101 525L104 524L108 525L111 526L115 525L118 524L122 523L125 522L128 525L132 524L135 525L139 526L142 528L146 483L149 510L153 514L156 523L159 521L163 519L166 519L170 519L173 520L177 523L180 524L184 525L187 525L190 522L194 522L197 525L201 527L204 529L208 528L211 528L215 528L218 528L221 527L225 526L228 526L232 525L235 527L239 527L242 527L246 527L249 526L252 521L256 525L259 526L263 526L266 526L270 526L273 526L277 525L280 526L283 525L287 525L290 525L294 526L297 525L301 520L304 507L308 508L311 513L314 520L318 521L321 523L325 523L328 524L332 524L335 523L339 522L342 522L345 522L349 523L352 473L356 387L359 365L363 368L366 386L370 522L373 505L376 516L380 523L383 522L387 522L390 523L394 523L397 524L401 524L404 525L407 525L411 524L414 525L418 527L421 525L425 523L428 519L432 514L435 504L438 401L442 374L445 391L449 378L452 366L456 358L459 345L463 338L466 467L469 503L473 505L476 506L480 500L483 492L487 492L490 496L494 499L497 501L500 504L504 504L507 506L511 507L514 507L518 507L521 508L525 508L528 509L531 510L535 510L538 511L542 513L545 515L549 515L552 514L556 515L559 514L562 514L566 514L569 515L573 516L576 516L580 514L583 514L587 514L590 513L593 513L597 513L600 515L604 516L607 520L611 520L614 520L618 520L621 519L624 521L628 521L631 523L635 523L638 524L642 524L645 525L649 525L652 525L655 525L659 525L662 526L666 525L669 525L673 526L676 526L680 524L683 525L686 525L690 525L693 526L697 527L700 527L704 527" fill="none" stroke-width="1.5"></path></g><g class="key-Japan_0"><path stroke="#34983f" stroke-linecap="round" d="M194 532L197 533L201 534L204 533L208 528L211 529L215 527L218 529L221 530L225 531L228 530L232 530L235 530L239 529L242 529L246 528L249 528L252 529L256 524L259 523L263 524L266 524L270 525L273 526L277 528L280 528L283 490L287 501L290 516L294 509L297 511L301 512L304 509L308 516L311 520L314 509L318 431L321 425L325 482L328 509L332 509L335 514L339 513L342 514L345 516L349 517L352 514L356 515L359 517L363 516L366 513L370 509L373 509L376 509L380 514L383 518L387 520L390 522L394 523L397 521L401 520L404 521L407 521L411 519L414 511L418 508L421 509L425 508L428 511L432 473L435 435L438 447L442 445L445 411L449 380L452 325L456 92L459 280L483 528L487 526L490 527L494 529L497 529L500 529L504 529L507 530L511 531L514 531L518 531L521 531L525 531L528 531L531 531L535 531L538 532L542 532L545 532L549 531L552 532L556 532L559 532L562 531L566 532L569 532L573 532L576 531L580 532L583 531L587 531L590 531L593 531L597 531L600 531L604 531L607 531L611 531L614 531L618 531L621 531L624 531L628 531L631 531L635 531L638 531L642 531L645 531L649 531L652 531L655 531L659 531L662 531L666 531L669 531L673 531L676 531L680 531L683 531L686 531L690 531L693 531L697 531L700 531L704 531" fill="none" stroke-width="1.5"></path></g></g></g></g><g style="fill: #777;" class="SourcesFooter"><g style="fill: #777;" class="clickable"><text font-size="12.60" x="15.0" y="581.6"><tspan x="15" y="581.58">Source: Our World in Data (based on COW &amp; SIPRI 2018)</tspan></text></g><text font-size="12.60" x="775.4" y="581.6"><tspan x="775.402" y="581.58"><a style="fill: #777;" class="cclogo" href="http://creativecommons.org/licenses/by-sa/4.0/deed.en_US" target="_blank">CC BY-SA</a></tspan></text></g></g></svg>
